sldassets/icons/standard/shift_type.svg

<?xml version="1.0"?><svg xmlns="http://www.w3.org/2000/svg" width="100" height="100" viewBox="0 0 100 100"><g fill="#fff"><path d="m72 26h-5v-2c0-2.2-1.8-4-4-4s-4 1.8-4 4v2h-18v-2c0-2.2-1.8-4-4-4s-4 1.8-4 4v2h-5c-3.3 0-6 2.7-6 6v2c0 1.1 0.9 2 2 2h52c1.1 0 2-0.9 2-2v-2c0-3.3-2.7-6-6-6z m4 16h-52c-1.1 0-2 0.9-2 2v30c0 3.3 2.7 6 6 6h44c3.3 0 6-2.7 6-6v-30c0-1.1-0.9-2-2-2z m-33.7 17.9c0-0.6 0.5-1.1 1.1-1.1h19.4c0.6 0 1.1 0.5 1.1 1.1v2.2c0 0.6-0.5 1.1-1.1 1.1h-19.4c-0.6 0-1.1-0.5-1.1-1.1v-2.2z m-4.5 12.1c0.1 0.6-0.4 1.1-1 1.1h-2.3c-0.6 0-1.1-0.5-1.1-1.1v-2.2c0-0.6 0.5-1.1 1.1-1.1h2.2c0.6 0 1.1 0.5 1.1 1.1v2.2z m0-9.9c0.1 0.6-0.4 1.1-1 1.1h-2.3c-0.6 0-1.1-0.5-1.1-1.1v-2.2c0-0.6 0.5-1.1 1.1-1.1h2.2c0.6 0 1.1 0.5 1.1 1.1v2.2z m0-9.9c0.1 0.6-0.4 1.1-1 1.1h-2.3c-0.6 0-1.1-0.5-1.1-1.1v-2.2c0-0.6 0.5-1.1 1.1-1.1h2.2c0.6 0 1.1 0.5 1.1 1.1v2.2z m28.8 19.8c0 0.6-0.5 1.1-1.1 1.1h-22.1c-0.6 0-1.1-0.5-1.1-1.1v-2.2c0-0.6 0.5-1.1 1.1-1.1h22.1c0.6 0 1.1 0.5 1.1 1.1v2.2z m0-19.8c0 0.6-0.5 1.1-1.1 1.1h-22.1c-0.6 0-1.1-0.5-1.1-1.1v-2.2c0-0.6 0.5-1.1 1.1-1.1h22.1c0.6 0 1.1 0.5 1.1 1.1v2.2z"></path></g></svg>

<?xml version="1.0" encoding="utf-8"?>
<!-- Generator: Adobe Illustrator 23.0.2, SVG Export Plug-In . SVG Version: 6.00 Build 0)  -->
<svg version="1.1" id="Layer_1" xmlns="http://www.w3.org/2000/svg" xmlns:xlink="http://www.w3.org/1999/xlink" x="0px" y="0px"
	 width="100px" height="100px" viewBox="0 0 100 100" enable-background="new 0 0 100 100" xml:space="preserve">
<g>
	<path fill="#FFFFFF" d="M72,26h-5v-2c0-2.2-1.8-4-4-4s-4,1.8-4,4v2H41v-2c0-2.2-1.8-4-4-4s-4,1.8-4,4v2h-5c-3.3,0-6,2.7-6,6v2
		c0,1.1,0.9,2,2,2h52c1.1,0,2-0.9,2-2v-2C78,28.7,75.3,26,72,26z"/>
	<path fill="#FFFFFF" d="M76,42H24c-1.1,0-2,0.9-2,2v30c0,3.3,2.7,6,6,6h44c3.3,0,6-2.7,6-6V44C78,42.9,77.1,42,76,42z M42.3,59.9
		c0-0.6,0.5-1.1,1.1-1.1h19.4c0.6,0,1.1,0.5,1.1,1.1v2.2c0,0.6-0.5,1.1-1.1,1.1H43.4c-0.6,0-1.1-0.5-1.1-1.1V59.9z M37.8,72
		c0.1,0.6-0.4,1.1-1,1.1h-0.1h-2.2c-0.6,0-1.1-0.5-1.1-1.1v-2.2c0-0.6,0.5-1.1,1.1-1.1h2.2c0.6,0,1.1,0.5,1.1,1.1V72z M37.8,62.1
		c0.1,0.6-0.4,1.1-1,1.1h-0.1h-2.2c-0.6,0-1.1-0.5-1.1-1.1v-2.2c0-0.6,0.5-1.1,1.1-1.1h2.2c0.6,0,1.1,0.5,1.1,1.1V62.1z M37.8,52.2
		c0.1,0.6-0.4,1.1-1,1.1h-0.1h-2.2c-0.6,0-1.1-0.5-1.1-1.1V50c0-0.6,0.5-1.1,1.1-1.1h2.2c0.6,0,1.1,0.5,1.1,1.1V52.2z M66.6,72
		c0,0.6-0.5,1.1-1.1,1.1H43.4c-0.6,0-1.1-0.5-1.1-1.1v-2.2c0-0.6,0.5-1.1,1.1-1.1h22.1c0.6,0,1.1,0.5,1.1,1.1V72z M66.6,52.2
		c0,0.6-0.5,1.1-1.1,1.1H43.4c-0.6,0-1.1-0.5-1.1-1.1V50c0-0.6,0.5-1.1,1.1-1.1h22.1c0.6,0,1.1,0.5,1.1,1.1V52.2z"/>
</g>
</svg>
